X:7825
T:Jokkmokks-valsen
C:anon.
O:Sweden
A:Norrbotten
B:Folkl\aatar Norrbotten
N:After N. A. \"Oberg
R:Vals, waltz
Z:Transcribed by Frank Nordberg - http://www.musicaviva.com
F:http://abc.musicaviva.com/tunes/sweden/jokkmokks-valsen.abc
M:3/4
L:1/8
K:G
Bd|g2(3fgf e2|d3e(dc)|(B2G2)G2|G3DGB|
(d2F2)F2|F3DFA|(B2G2)G2|G3cBd|
g2(3fgf e2|d3e(dc)|(B2G2)G2|G3DGB|
(d2F2)F2|F3DFA|(.G3.G)G2|[1[B,4G4]:|[2G4D2||
|:([G,2D2][DB])[DB][DB][DB]|((3[DB][Dc][DB])[D2A2][D2B2]|([C2G2][Ec])[Ec][Ec][Ec]|((3[Ec][Ed][Ec])[E2B2][E2c2]|
([D2A2][Af])[Af][Af][Af]|((3[Af][Ag][Af])[A2e2][A2f2]|([D2d2][Bg)][Bg][Bg][Bg]|(gf)ge(dB)|
([G,2D2][DB])[DB][DB][DB]|((3[DB][Dc][DB])[D2A2][D2B2]|([C2G2][Ec])[Ec][Ec][Ec]|((3[Ec][Ed][Ec])[E2B2][E2c2]|
([D2A2][Af])[Af][Af][Af]|((3[Af][Ag][Af])[A2e2][A2f2]|([D2d2][Bg)][Bg][Bg][Bg]|[B6g6]:|
W:
W:
W:  From Musica Viva - http://www.musicaviva.com
W:  the Internet center for free sheet music downloads.
